style-guide/assets/wds-icons-alert-small.svg

<svg xmlns="http://www.w3.org/2000/svg" xmlns:xlink="http://www.w3.org/1999/xlink" width="18" height="18" viewBox="0 0 18 18">
  <defs>
    <path id="alert-a" d="M2.6184095,15.9950433 L9.0004095,3.19940965 L15.3824095,15.9950433 L2.6184095,15.9950433 Z M17.8944095,16.5494138 L9.8944095,0.509760241 C9.5554095,-0.16992008 8.4454095,-0.16992008 8.1054095,0.509760241 L0.105409497,16.5494138 C-0.0495905031,16.8601821 -0.0325905031,17.2280917 0.149409497,17.5238228 C0.332409497,17.8195539 0.653409497,18 1.0004095,18 L17.0004095,18 C17.3474095,18 17.6684095,17.8195539 17.8504095,17.5238228 C18.0334095,17.2280917 18.0504095,16.8601821 17.8944095,16.5494138 Z M8.0002095,7.97521651 L8.0002095,9.98017321 C8.0002095,10.5345437 8.4472095,10.9826516 9.0002095,10.9826516 C9.5532095,10.9826516 10.0002095,10.5345437 10.0002095,9.98017321 L10.0002095,7.97521651 C10.0002095,7.42084598 9.5532095,6.97273816 9.0002095,6.97273816 C8.4472095,6.97273816 8.0002095,7.42084598 8.0002095,7.97521651 M9.7102095,12.2758486 C9.6602095,12.2357495 9.6092095,12.1846231 9.5502095,12.1555512 C9.5002095,12.1154521 9.4392095,12.0853777 9.3802095,12.0653282 C9.3192095,12.0352538 9.2602095,12.0142018 9.1892095,12.004177 C8.8702095,11.9340035 8.5202095,12.0462811 8.2902095,12.2758486 C8.2002095,12.3760965 8.1302095,12.4763443 8.0802095,12.605664 C8.0302095,12.7269639 8.0002095,12.8562836 8.0002095,12.9876083 C8.0002095,13.2482526 8.1092095,13.5078945 8.2902095,13.6993679 C8.4802095,13.879814 8.7302095,13.9900866 9.0002095,13.9900866 C9.0602095,13.9900866 9.1302095,13.9800618 9.1892095,13.970037 C9.2602095,13.9600123 9.3192095,13.9389602 9.3802095,13.9098883 C9.4392095,13.8898388 9.5002095,13.8587619 9.5502095,13.8196653 C9.6092095,13.7795661 9.6602095,13.739467 9.7102095,13.6993679 C9.8902095,13.5078945 10.0002095,13.2482526 10.0002095,12.9876083 C10.0002095,12.8562836 9.9702095,12.7269639 9.9202095,12.605664 C9.8702095,12.4763443 9.8002095,12.3660717 9.7102095,12.2758486"/>
  </defs>
  <use fill-rule="evenodd" xlink:href="#alert-a"/>
</svg>

<svg viewBox="0 0 18 18" xmlns="http://www.w3.org/2000/svg">
  <path d="M2.618 15.995L9 3.199l6.382 12.796H2.618zm15.276.554l-8-16.04C9.555-.17 8.445-.17 8.105.51l-8 16.04A1.003 1.003 0 0 0 1 18h16c.347 0 .668-.18.85-.476a.998.998 0 0 0 .044-.975zM8 7.975V9.98a1 1 0 1 0 2 0V7.975a1 1 0 1 0-2 0m1.71 4.3c-.05-.04-.1-.09-.16-.12a.567.567 0 0 0-.17-.09.61.61 0 0 0-.19-.06.999.999 0 0 0-.9.27c-.09.101-.16.201-.21.33a1.01 1.01 0 0 0-.08.383c0 .26.11.52.29.711.19.18.44.291.71.291.06 0 .13-.01.19-.02a.635.635 0 0 0 .19-.06.59.59 0 0 0 .17-.09c.06-.04.11-.08.16-.12.18-.192.29-.452.29-.712 0-.132-.03-.261-.08-.382a.94.94 0 0 0-.21-.33"/>
</svg>
